styles/3/Numix/128x128/actions/default-folder-new.svg

<?xml version="1.0" encoding="UTF-8" standalone="no"?>
<svg
   xmlns:dc="http://purl.org/dc/elements/1.1/"
   xmlns:cc="http://creativecommons.org/ns#"
   xmlns:rdf="http://www.w3.org/1999/02/22-rdf-syntax-ns#"
   xmlns:svg="http://www.w3.org/2000/svg"
   xmlns="http://www.w3.org/2000/svg"
   xmlns:sodipodi="http://sodipodi.sourceforge.net/DTD/sodipodi-0.dtd"
   xmlns:inkscape="http://www.inkscape.org/namespaces/inkscape"
   width="128px"
   height="128px"
   viewBox="0 0 128 128"
   version="1.1"
   id="svg3070"
   inkscape:version="0.48.5 r10040"
   sodipodi:docname="folder-new.svg">
  <metadata
     id="metadata3091">
    <rdf:RDF>
      <cc:Work
         rdf:about="">
        <dc:format>image/svg+xml</dc:format>
        <dc:type
           rdf:resource="http://purl.org/dc/dcmitype/StillImage" />
      </cc:Work>
    </rdf:RDF>
  </metadata>
  <defs
     id="defs3089" />
  <sodipodi:namedview
     pagecolor="#ffffff"
     bordercolor="#666666"
     borderopacity="1"
     objecttolerance="10"
     gridtolerance="10"
     guidetolerance="10"
     inkscape:pageopacity="0"
     inkscape:pageshadow="2"
     inkscape:window-width="668"
     inkscape:window-height="480"
     id="namedview3087"
     showgrid="false"
     inkscape:zoom="1.3037281"
     inkscape:cx="71.981412"
     inkscape:cy="71.7935"
     inkscape:window-x="0"
     inkscape:window-y="0"
     inkscape:window-maximized="0"
     inkscape:current-layer="svg3070" />
  <path
     inkscape:connector-curvature="0"
     id="path3073"
     d="m 12,24 104,0 0,40 -104,0 z m 0,0"
     style="fill:#ea9036;fill-opacity:1;fill-rule:nonzero;stroke:none" />
  <path
     inkscape:connector-curvature="0"
     id="path3075"
     d="m 24,24 c 0,-4 0,-8 5.816406,-8 l 20.367188,0 C 56,16 56,20 56,24 l 0,4 -32,0 z m 0,0"
     style="fill:#ea9036;fill-opacity:1;fill-rule:nonzero;stroke:none" />
  <path
     inkscape:connector-curvature="0"
     id="path3077"
     d="m 20,32 88,0 0,19.871094 -88,0 z m 0,0"
     style="fill:#94979e;fill-opacity:1;fill-rule:nonzero;stroke:none" />
  <path
     inkscape:connector-curvature="0"
     id="path3079"
     d="m 28,28 76,0 0,52 -76,0 z m 0,0"
     style="fill:#d7d7d9;fill-opacity:1;fill-rule:nonzero;stroke:none" />
  <path
     inkscape:connector-curvature="0"
     id="path3081"
     d="m 24,36 76,0 0,52 -76,0 z m 0,0"
     style="fill:#f8f8f8;fill-opacity:1;fill-rule:nonzero;stroke:none" />
  <path
     inkscape:connector-curvature="0"
     id="path3083"
     d="m 4,40 120,0 -8.57031,72 -102.859378,0 z m 0,0"
     style="fill:#f2bb64;fill-opacity:1;fill-rule:nonzero;stroke:none" />
  <path
     inkscape:connector-curvature="0"
     id="path3085"
     d="m 128,76 -28,0 0,-28 -24,0 0,28 -28,0 0,24 28,0 0,28 24,0 0,-28 28,0 z m 0,0"
     style="fill:#859900;fill-opacity:1;fill-rule:nonzero;stroke:none" />
</svg>

<svg xmlns="http://www.w3.org/2000/svg" xmlns:xlink="http://www.w3.org/1999/xlink" width="128px" height="128px" viewBox="0 0 128 128" version="1.1">
<g id="surface1">
<path style=" stroke:none;fill-rule:nonzero;fill:rgb(91.764706%,56.470588%,21.176471%);fill-opacity:1;" d="M 12 24 L 116 24 L 116 64 L 12 64 Z M 12 24 "/>
<path style=" stroke:none;fill-rule:nonzero;fill:rgb(91.764706%,56.470588%,21.176471%);fill-opacity:1;" d="M 24 24 C 24 20 24 16 29.816406 16 L 50.183594 16 C 56 16 56 20 56 24 L 56 28 L 24 28 Z M 24 24 "/>
<path style=" stroke:none;fill-rule:nonzero;fill:rgb(58.431373%,59.607843%,62.352941%);fill-opacity:1;" d="M 20 32 L 108 32 L 108 51.871094 L 20 51.871094 Z M 20 32 "/>
<path style=" stroke:none;fill-rule:nonzero;fill:rgb(84.705882%,84.705882%,85.490196%);fill-opacity:1;" d="M 28 28 L 104 28 L 104 80 L 28 80 Z M 28 28 "/>
<path style=" stroke:none;fill-rule:nonzero;fill:rgb(97.647059%,97.647059%,97.647059%);fill-opacity:1;" d="M 24 36 L 100 36 L 100 88 L 24 88 Z M 24 36 "/>
<path style=" stroke:none;fill-rule:nonzero;fill:rgb(94.901961%,73.333333%,39.215686%);fill-opacity:1;" d="M 4 40 L 124 40 L 115.429688 112 L 12.570312 112 Z M 4 40 "/>
<path style=" stroke:none;fill-rule:nonzero;fill:rgb(52.156863%,60%,0%);fill-opacity:1;" d="M 128 76 L 100 76 L 100 48 L 76 48 L 76 76 L 48 76 L 48 100 L 76 100 L 76 128 L 100 128 L 100 100 L 128 100 Z M 128 76 "/>
</g>
</svg>
